X: 45
T: Bóg wszechmocny, Bóg prawdziwy,
C: Mikołaj Gomółka
%%abc-version 2.0
%%abcx-abcm2ps-target-version 5.9.1 (29 Sep 2008)
%%abc-creator hum2abc beta
%%abcx-conversion-date 2021/10/04 07:59:09
%%abc-edited-by Marta Lawrence
%%abcx-initial-encoding-date 2020-02-08
%%humdrum-veritas 3082386898
%%humdrum-veritas-data 2471623575
%%linebreak <none>
%%barnumbers 0
L: 1/4
M: C|
N: Derived from pl-wn--sd-xvi-qu-273--046_gomolka-mikolaj--bog-wszechmocny-bog-prawdziwy.krn
%%staves [1 2 3 4]
V: 1 clef=treble
V: 2
V: 3 clef=alto
V: 4
K: Bb
[V:1] G4B2c2 [|] 
[V:2] D4D2AG [|] 
[V:3] G4G2F=E [|] 
[V:4] G,4G,2A,2 [|] 
[V:1] d6d2 [|] 
[V:2] F6F2 [|] 
[V:3] D6D2 [|] 
[V:4] B,6B,,2 [|] 
[V:1] f2_e2d2d2 [|] 
[V:2] B2G2F2G2 [|] 
[V:3] D2CB,A,2B,2 [|] 
[V:4] B,,2C,2D,2G,2 [|] 
[V:1] d2B2=e3d [|] 
[V:2] G2G2B3A [|] 
[V:3] B,CDC/D/=E2E4 [|] 
[V:4] G,2G,2=E,4 [|] 
[V:1] c2B4A2 [|] 
[V:2] G2F2G2F2 [|] 
[V:3] D2C2C2 [|] 
[V:4] =E,2B,,2E,2F,2 [|] 
[V:1] B2B2B3c [|] 
[V:2] D2G2F2GA [|] 
[V:3] B,2D2F2_E2 [|] 
[V:4] G,2G,2D,2=E,2 [|] 
[V:1] d2>c2B2=ed [|] 
[V:2] B2F2G2G2 [|] 
[V:3] D4D2CB, [|] 
[V:4] B,,2B,A,G,F,=E,4 [|] 
[V:1] cB2AB2F2 [|] 
[V:2] G2F=ED2B,2 [|] 
[V:3] C4B,2D2 [|] 
[V:4] F,2B,,2B,,2 [|] 
[V:1] A2GAB2A3 [|] 
[V:2] C2C2D=EF2 [|] 
[V:3] F2_E2D3C [|] 
[V:4] F,2C,2G,2D,2 [|] 
[V:1] GG4F2 [|] 
[V:2] _E2E2D3C [|] 
[V:3] B,2C2A,4 [|] 
[V:4] =E,2C,2D,4 [|] 
[V:1] G32 |]  
[V:2] =B,32 |]  
[V:3] G,32 |]  
[V:4] G,32 |]  


